X: 1027
T: Hay my Nancie
P: Longways for as many as will
R: slip-jig
B: "Caledonian Country Dances" printed by John Walsh for John Johnson, London
S: http://imslp.org/wiki/Caledonian_Country_Dances_with_a_Thorough_Bass_(Various)
Z: 2013 John Chambers <jc:trillian.mit.edu>
M: 9/4
L: 1/4
K: Amix
% - - - - - - - - - - - - - - - - - - - - - - - - -
V: 1
   g | f2e c/d/eA c/d/eA | f2e c/d/eA Bdg | f2e c/d/eA cdf | gfe dBG Bd :|
|: g | fga efA    ceg    | fga eaA    Bdg | fga efA    cef | gfe dBG Bd :|
% - - - - - - - - - - - - - - - - - - - - - - - - -
V: 2 clef=bass middle=d
   z | d2a A3 a3 | d'2a a3 g3 | d2f a3 A3 | g3 A3 g2 :|
|: z | d3  a3 A3 | d3   a3 g3 | d3  a3 A3 | G3 g3 G2 :|
% - - - - - - - - - - - - - - - - - - - - - - - - -
%%begintext align
The 1st Man cast off, his Partner follows him, and then foot it in the 2d Cu. Place .|
first Man follows his Partner back again, and foot it at the top :|
first Man foots it with 2d Wo. and turns her .|
their Partners do the same :#:
the 1st Cu. back to back, cast off, 1st Cu back to back again, 1st Man cast down, and the 1st Wo. cast up at the same time :|
the 1st Man turns the 3d Wo. 1st Wo. at the same time turns the 2d Man, and then her Partner with her left hand .|
and then do the same at the other Corner.
%%endtext

%%sep 1 1 500
%%sep 1 1 500
